X: 4
T: Barney Brannigan
R: slip jig
M: 9/8
L: 1/8
K: Fmaj
|: A2 c cdc cdc | A2 c cdc f2 a | A2 c cdc cdc | d2 d def gec :||: A2 c A2 c AGF | A2 c A2 c BAG | A2 c A2 c AGF | d2 d def gec :||: a3 g3 f3 | d2 d def gec | a3 g3 f3 | d2 d c2 B AGF :|


Tune 1429	Setting 26198

